library/css/icons/svgs/fi-page-filled.svg

<svg xmlns="http://www.w3.org/2000/svg" width="100" height="100" viewBox="0 0 100 100"><path d="M21.455 36.16h25.95c.956 0 1.729-.774 1.729-1.73v-25.95c0-.956-.774-1.73-1.729-1.73h-1.73l-25.95 25.95v1.729c0 .957.774 1.731 1.73 1.731zM78.545 6.75h-17.724c-.806 0-1.476.553-1.669 1.298h-.061v36.551h-.002l.002.023c0 .956-.774 1.73-1.73 1.73l-.009-.001v.001h-35.897c-.873 0-1.586.647-1.706 1.487h-.024v43.681c0 .956.774 1.73 1.73 1.73h57.09c.956 0 1.73-.774 1.73-1.73v-83.04c0-.956-.774-1.73-1.73-1.73z"/></svg>

<?xml version="1.0" encoding="utf-8"?>
<!-- Generator: Adobe Illustrator 17.0.0, SVG Export Plug-In . SVG Version: 6.00 Build 0)  -->
<!DOCTYPE svg PUBLIC "-//W3C//DTD SVG 1.1//EN" "http://www.w3.org/Graphics/SVG/1.1/DTD/svg11.dtd">
<svg version="1.1" id="Layer_1" xmlns="http://www.w3.org/2000/svg" xmlns:xlink="http://www.w3.org/1999/xlink" x="0px" y="0px"
	 width="100px" height="100px" viewBox="0 0 100 100" enable-background="new 0 0 100 100" xml:space="preserve">
<g>
	<path d="M21.455,36.16h25.95c0.956,0,1.729-0.774,1.729-1.73V8.48c0-0.956-0.774-1.73-1.729-1.73h-1.73L19.725,32.7v1.729
		C19.725,35.386,20.499,36.16,21.455,36.16z"/>
	<path d="M78.545,6.75H60.821c-0.806,0-1.476,0.553-1.669,1.298h-0.061v36.551h-0.002c0,0.008,0.002,0.015,0.002,0.023
		c0,0.956-0.774,1.73-1.73,1.73c-0.003,0-0.006-0.001-0.009-0.001v0.001H21.455c-0.873,0-1.586,0.647-1.706,1.487h-0.024V91.52
		c0,0.956,0.774,1.73,1.73,1.73h57.09c0.956,0,1.73-0.774,1.73-1.73V8.48C80.275,7.524,79.501,6.75,78.545,6.75z"/>
</g>
</svg>
